assets/img/prio_low_green.svg

<svg width="20" height="15" viewBox="0 0 20 15" fill="none" xmlns="http://www.w3.org/2000/svg">
<path d="M10 8.76077C9.7654 8.76118 9.53687 8.68634 9.34802 8.54726L0.444913 1.97752C0.329075 1.89197 0.231235 1.78445 0.15698 1.66111C0.0827245 1.53777 0.033508 1.40102 0.0121402 1.25868C-0.031014 0.971193 0.0418855 0.678356 0.214802 0.444584C0.387718 0.210811 0.646486 0.0552534 0.934181 0.0121312C1.22188 -0.0309911 1.51493 0.0418545 1.74888 0.214643L10 6.29712L18.2511 0.214643C18.367 0.129087 18.4985 0.0671675 18.6383 0.0324205C18.7781 -0.00232646 18.9234 -0.00922079 19.0658 0.0121312C19.2083 0.0334832 19.3451 0.0826633 19.4685 0.156864C19.592 0.231064 19.6996 0.328831 19.7852 0.444584C19.8708 0.560336 19.9328 0.691806 19.9676 0.831488C20.0023 0.97117 20.0092 1.11633 19.9879 1.25868C19.9665 1.40102 19.9173 1.53777 19.843 1.66111C19.7688 1.78445 19.6709 1.89197 19.5551 1.97752L10.652 8.54726C10.4631 8.68634 10.2346 8.76118 10 8.76077Z" fill="#7AE229"/>
<path d="M10 14.5093C9.7654 14.5097 9.53687 14.4349 9.34802 14.2958L0.444913 7.72606C0.210967 7.55327 0.0552944 7.29469 0.0121402 7.00721C-0.031014 6.71973 0.0418855 6.42689 0.214802 6.19312C0.387718 5.95935 0.646486 5.80379 0.934181 5.76067C1.22188 5.71754 1.51493 5.79039 1.74888 5.96318L10 12.0457L18.2511 5.96318C18.4851 5.79039 18.7781 5.71754 19.0658 5.76067C19.3535 5.80379 19.6123 5.95935 19.7852 6.19312C19.9581 6.42689 20.031 6.71973 19.9879 7.00721C19.9447 7.29469 19.789 7.55327 19.5551 7.72606L10.652 14.2958C10.4631 14.4349 10.2346 14.5097 10 14.5093Z" fill="#7AE229"/>
</svg>

<?xml version="1.0" encoding="UTF-8"?>
<svg id="Ebene_1" xmlns="http://www.w3.org/2000/svg" version="1.1" viewBox="0 0 20 15">
  <!-- Generator: Adobe Illustrator 30.1.0, SVG Export Plug-In . SVG Version: 2.1.1 Build 136)  -->
  <defs>
    <style>
      .st0 {
        fill: #1fd7c1;
      }
    </style>
  </defs>
  <path class="st0" d="M10,8.76c-.23,0-.46-.07-.65-.21L.44,1.98c-.12-.09-.21-.19-.29-.32-.07-.12-.12-.26-.14-.4-.04-.29.03-.58.2-.81C.39.21.65.06.93.01c.29-.04.58.03.81.2l8.25,6.08L18.25.21c.12-.09.25-.15.39-.18.14-.03.29-.04.43-.02.14.02.28.07.4.14.12.07.23.17.32.29.09.12.15.25.18.39.03.14.04.28.02.43-.02.14-.07.28-.14.4-.07.12-.17.23-.29.32l-8.9,6.57c-.19.14-.42.21-.65.21Z"/>
  <path class="st0" d="M10,14.51c-.23,0-.46-.07-.65-.21L.44,7.73c-.23-.17-.39-.43-.43-.72-.04-.29.03-.58.2-.81.17-.23.43-.39.72-.43.29-.04.58.03.81.2l8.25,6.08,8.25-6.08c.23-.17.53-.25.81-.2.29.04.55.2.72.43s.25.53.2.81c-.04.29-.2.55-.43.72l-8.9,6.57c-.19.14-.42.21-.65.21Z"/>
</svg>
